!!!!SEGMENT: pl-wtm--r-2006_smietanski-emil-wladyslaw--souvenir-de-vienne-no-1.krn
!!!cenid: 18xx:1967
!!!COM: Śmietański, Emil Władysław
!!!COM-rismid: pe50041781
!!!CDT: 1845-1886
!!!CNT: Polish
!!!OTL: Souvenir de Vienne - No 1
!!!PDT: 1865
!!!AGN: Secular; Vienna
!!!SMS-siglum: PL-Wtm
!!!SMS-shelfmark: R 2006
!!!SMS-shelfwork: W
!!!SMS-variant:
!!!SMS-altvar:
!!!NIFC-rismid: 1001112881
!!!URL-scan: http://repozytorium.nifc.pl/skany/pl-wtm-nut--r2006
!!!ONB-nifc:
**kern	**kern	**dynam
*part1	*part1	*part1
*staff2	*staff1	*
*I"[Fortepian]	*	*
*I'[pf]	*	*
*clefF4	*clefG2	*
*k[b-e-a-]	*k[b-e-a-]	*
*E-:	*E-:	*
*M3/4	*M3/4	*
*>[A,B,C,C,D,E,F,G]	*>[A,B,C,C,D,E,F,G]	*
=1	=1	=1
*>A	*>A	*
!	!LO:TX:t=P:problem:wątpliwość-możliwa wersja formy[A,B,C,C,D,E,F,G,B,C,C,D,E,F,G]	!
!	!LO:TX:a:i:t=No. 1.	!
!	!LO:TX:a:i:t=Souvenirs de Vienne. Trois Valses de Concert.	!
8d\L	8b-\L	<
8e-\	8cc-X\	.
8d\	8b-\	.
8e-\	8cc-\	.
8d\	8b-\	.
8e-\J	8cc-\J	.
*clefG2	*	*
=2	=2	=2
8d/L	8b-\L	.
8g-X/	8ee-\	.
8f/	8dd\	.
8g-/	8ee-\	.
8f/	8dd\	.
8g-/J	8ee-\J	.
=3	=3	=3
8f/L	8dd\L	.
8an/	8ee-\ 8gg-X	.
8b-/	8dd\ 8ff	.
8a/	8ee-\ 8gg-	.
8b-/	8dd\ 8ff	.
8a/J	8ee-\J 8gg-	.
=4	=4	=4
4b-\	4dd\ 4ff	[ f
*clefF4	*	*
4BB-\ 4B-	4b-\ 4bb-	.
4BBB-/ 4BB-	4bb-\ 4bbb-	.
*clefG2	*	*
=5	=5	=5
*^	*	*
*	*2\right	*	*
!	!	!	!LO:DY:a
8d/L	2.B-\	8f\L 8b-	<
8e-/	.	8g-X\ 8cc-X	.
8d/	.	8f\ 8b-	.
8e-/	.	8g-\ 8cc-	.
8d/	.	8f\ 8b-	.
8e-/J	.	8g-\J 8cc-	.
*v	*v	*	*
=6	=6	=6
8d/L	8f\L 8b-	.
8g-X/	8cc-X\ 8ee-	.
8f/	8b-\ 8dd	.
8g-/	8cc-\ 8ee-	.
8f/	8b-\ 8dd	.
8g-/J	8cc-\J 8ee-	[[
!!LO:LB:g=original
=7	=7	=7
*clefG2	*	*
!	!	!LO:DY:a
8f/L	8b-\L 8dd	<
8an/	8ee-\ 8gg-X	.
8b-/	8dd\ 8ff	.
8a/	8ee-\ 8gg-	.
8b-/	8dd\ 8ff	.
8a/J	8ee-\J 8gg-	.
=8	=8	=8
4b-/	4dd\ 4ff	.
*clefF4	*	*
4BB-\ 4B-	4b-\ 4bb-	.
4BBB-\ 4BB-	4bb-\ 4bbb-	.
*clefG2	*	*
=9	=9	=9
4cc\	4ee-\ 4ff	.
*clefF4	*	*
4BB-\ 4B-	4b-\ 4bb-	.
4BBB-\ 4BB-	4bb-\ 4bbb-	.
*clefG2	*	*
=10	=10	=10
4cc#X\	4een\ 4ff	.
*clefF4	*	*
4BB-\ 4B-	4b-\ 4bb-	.
4BBB-\ 4BB-	4bb-\ 4bbb-	.
*clefG2	*	*
=11	=11	=11
4dd\	4ff\	.
*clefF4	*	*
4BB-\ 4B-	4b-\ 4bb-	.
4BBB-\ 4BB-	4bb-\ 4bbb-	[[
=12	=12	=12
2r;	2r;	.
!LO:TX:t=[segno]	!LO:TX:t=[segno]	!
4r	4r	.
=13||	=13||	=13||
*>B	*>B	*
*	*^	*
2r	(4ee-/	2.g\ 2.gg	.
.	4dd/	.	pp
!	!LO:TX:b:i:t=dolce	!	!
4r	4dd-X/	.	.
*	*v	*v	*
!!LO:LB:g=original
=14	=14	=14
.	16qqcc/)	.
4FF/	16a-'\ 16aa-	.
.	16r	.
.	8r	.
!	!LO:TX:b:i:t=lento	!
4F\ 4c	4r	.
.	16qqdd/	.
4A-\ 4d	16a-'\ 16aa-	.
.	16r	.
.	8r	.
=15	=15	=15
4BBB-/	4r	.
!	!LO:TX:b:i:t=à tempo	!
.	32qqcc/	.
4F\ 4c	4a-'\ 4aa-	.
.	32qqdd/	.
4A-\ 4d	4a-'\ 4aa-	.
=16	=16	=16
4EE-/	4g\ 4ee- 4gg	.
*	*Xtuplet	*
!	!LO:TUP:a:problem:brak klamry	!
4G\ 4e-	12bb-\L	.
.	12bb-\	.
.	12bb-\J	.
4B-\ 4g	4bb-\	.
=17	=17	=17
4BBB-/	4ee-\ 4gg 4eee-	<
4E-\ 4c	4cc\ 4ccc	[ >
4G\ 4e-	4g\ 4gg	]
=18	=18	=18
4BB-\	4f\ 4dd 4ff	.
4F\ 4c	12aa-\L	.
.	12aa-\	.
.	12aa-\J	.
4A-\ 4d	4aa-\	.
=19	=19	=19
4BBB-/	4dd\ 4aa- 4ddd	<
4F\ 4B-	4cc\ 4ccc	[ >
4A-\ 4d	4f\ 4ff	]
!!LO:LB:g=original
=20	=20	=20
4EE-\	4e-\ 4ee-	.
4E-\ 4B-	12gg\L	.
.	12gg\	.
.	12gg\J	.
4G\ 4e-	4gg\	.
=21	=21	=21
*	*^	*
*	*	*2\right	*
!	!LO:TX:b:i:t=rit.	!	!
!	!LO:TX:b:t=P:problem:korekta ołówkiem	!	!
8r	4cc\ 4ccc	2gg\	.
8EE-/L 8E-	.	.	.
8DD/ 8D	4b-\ 4bb-	.	.
8DD-X/ 8D-X	.	.	.
8CC/ 8C	4g\ 4ee- 4gg	4ryy	.
8CC-X/J 8C-X	.	.	.
*	*v	*v	*
=22	=22	=22
.	16qqcc/	.
4BBB-/ 4BB-	16a-\ 16aa-	.
.	16r	.
.	8r	.
!	!LO:TX:b:i:t=lento	!
4F\ 4c	4r	.
.	16qqdd/	.
4A-\ 4d	16a-\ 16aa-	.
.	16r	.
.	8r	.
=23	=23	=23
!	!LO:TX:b:i:t=à tempo	!
4DD/	4r	.
.	32qqcc/	.
4F\ 4c	4a-\ 4aa-	.
.	32qqdd/	.
4A-\ 4d	4a-\ 4aa-	.
=24	=24	=24
4EE-/	4g\ 4ee- 4gg	.
4G\ 4e-	12bb-\L	.
.	12bb-\	.
.	12bb-\J	.
4B-\ 4g	4bb-\	.
=25	=25	=25
4CC/	4ee-\ 4gg 4eee-	>
4G\ 4e-	4cc\ 4ccc	.
4c\ 4g	4g\ 4gg	]
!!LO:LB:g=original
=26	=26	=26
!	!LO:TX:b:i:t=staccato._	!
4FF\	8f\L 8dd 8ff	.
.	8en\ 8een	.
4F\ 4d	8f\ 8ff	.
.	8g\ 8gg	.
4B-\ 4f	8an\ 8aan	.
.	8b-\J 8bb-	.
=27	=27	=27
4FF\	8cc\L 8ccc	.
.	8dd\ 8ddd	.
4F\ 4An 4e- 4an	8ee-\ 8eee-	.
.	8ff\ 8eee-	.
4r	8gg\ 8eee-	.
.	8aan\J 8eee-	.
=28	=28	=28
8BBB-/L	8bb-\L 8ddd	.
8FF/J	8ff\ 8ccc	.
8BB-/L	8dd\ 8bb-	.
8F/J	8cc\ 8ff	.
4B-/	8b-\ 8dd	.
.	8f\J 8cc	.
=29	=29	=29
!	!LO:TX:a:i:t=ms.	!
4bb->/	4d\ 4b-	.
4r	4r	.
4r	4r	.
=30	=30	=30
!	!LO:TX:b:i:t=lusingendo	!
.	16qqcc/	.
4FF\	16a-\ 16aa-	.
.	16r	.
.	8r	.
4F\ 4c	4r	.
.	16qqdd/	.
4A-\ 4d	16a-\ 16aa-	.
.	16r	.
.	8r	.
=31	=31	=31
4BBB-/	4r	.
.	16qqcc/	.
4F\ 4c	4a-\ 4aa-	.
.	16qqdd/	.
4A-\ 4d	4a-\ 4aa-	.
!!LO:LB:g=original
=32	=32	=32
4EE-/	4g\ 4ee- 4gg	.
4G\ 4e-	12bb-\L	.
.	12bb-\	.
.	12bb-\J	.
4B-\ 4g	4bb-\	.
=33	=33	=33
4BBB-/	4ee-\ 4gg 4eee-	<
4E-\ 4c	4cc\ 4ccc	[ >
4G\ 4e-	4g\ 4gg	]
=34	=34	=34
4BB-\	4f\ 4dd 4ff	.
4F\ 4c	12aa-\L	.
.	12aa-\	.
.	12aa-\J	.
4A-\ 4d	4aa-\	.
=35	=35	=35
4BBB-/	4dd\ 4aa- 4ddd	<
4F\ 4B-	4cc\ 4ccc	[ >
4A-\ 4d	4f\ 4ff	.
=36	=36	=36
4EE-\	4e-\ 4ee-	]
4E-\ 4B-	12gg\L	.
.	12gg\	.
.	12gg\J	.
4G\ 4e-	4gg\	.
=37	=37	=37
*	*^	*
!	!LO:TX:b:i:t=rit.	!	!
!	!LO:TX:b:t=P:problem:korekta ołówkiem	!	!
8r	4cc\ 4ccc	2gg/	.
8EE-/L 8E-	.	.	.
8DD/ 8D	4b-\ 4bb-	.	.
8DD-X/ 8D-X	.	.	.
8CC/ 8C	4g\ 4ee- 4gg	4ryy	.
8CC-X/J 8C-X	.	.	.
*	*v	*v	*
=38	=38	=38
.	16qqcc/	.
4BBB-/ 4BB-	16a-\ 16aa-	.
.	16r	.
.	8r	.
4F\ 4c	4r	.
.	16qqdd/	.
4A-\ 4d	16a-\ 16aa-	.
.	16r	.
.	8r	.
!!LO:PB:g=original
=39	=39	=39
4DD/	4r	.
.	32qqcc/	.
4F\ 4c	4a-\ 4aa-	.
.	32qqdd/	.
4A-\ 4d	4a-\ 4aa-	.
=40	=40	=40
4EE-/	4g\ 4ee- 4gg	.
4G\ 4e-	12bb-\L	.
.	12bb-\	.
.	12bb-\J	.
4B-\ 4g	4bb-\	.
=41	=41	=41
4GGG/ 4GG	4ee-\ 4eee-	>
4G\ 4e-	4b-\ 4bb-	.
4B-\ 4g	4g\ 4gg	]
=42	=42	=42
4AAA-/ 4AA-	8f'\L 8cc 8ee- 8ff	.
.	8en'\ 8een	.
4F\ 4e-	8f'\ 8ff	.
.	8f#X'\ 8ff#X	.
4c\ 4f	8g\ 8gg	.
.	8a-\J 8aa-	.
=43	=43	=43
4BBB-/ 4BB-	8an\L 8aan	.
.	8b-\ 8bb-	.
4F\ 4B- 4d 4a-	8bn\ 8bbn	.
.	8cc\ 8ccc	.
!	!LO:TX:t=P:problem:korekta ołówkiem	!
4r	8cc#X\ 8ccc#y	.
.	8dd\J 8ddd	.
=44	=44	=44
8EE-\L	8ee-\L 8gg 8eee-	.
8BB-\	8ff\ 8bb-	.
8E-\	8ee-\ 8gg	.
8B-\J	8b-\ 8ff	.
4e-\	8g\ 8ee-	.
.	8f\J 8b-	.
!!LO:LB:g=original
=45	=45	=45
*	*^	*
!	!	!LO:TX:a:i:t=m.s.	!
4ee->/	4g/	4e-\	.
4r	4r	2ryy	.
4r	4e-\ 4ee-	.	.
*	*v	*v	*
=46!|:	=46!|:	=46!|:
*>C	*>C	*
4AAA-/	4r	.
4A-\ 4a-	4.cc\ 4.ee- 4.ccc	f
4E-\ 4e-	.	.
.	8cc\ 8ee- 8ccc	.
=47	=47	=47
4AA-\ 4A-	4cc\ 4ee- 4ccc	.
!	!LO:TX:t=P:problem:korekta ołówkiem	!
4EE-/ 4E-	4bn\ 4ee- 4bbny	.
4AAA-/ 4AA-	4cc\ 4ee- 4ccc	.
=48	=48	=48
*	*2\left	*
!	!LO:TX:t=P:problem:pytałem o ten znaczek na problemach, ale nikt nie odpowiedział; wpisuję subito z pytajnikiem	!
!	!LO:TX:b:i:t=subito?	!
4EEE-/ 4EE-	2ee-\ 2gg 2eee-	p
4G\ 4d 4e-	.	.
4r	4b-\ 4bb-	.
=49	=49	=49
*	*8va	*
!	!LO:TX:b:i:t=ms.	!
!	!LO:TX:b:i:t=lento	!
.	32qqffff/	.
4g>:\ 4dd-X>: 4ee->:	4bbb-:/ 4eeee-:	.
!	!	!LO:DY:t=pp.
.	32qqffff/	pp
4g>:\ 4dd->: 4ee->:	4bbb-:/ 4eeee-:	.
.	32qqffff/	.
4g>:\ 4dd->: 4ee->:	4bbb-:/ 4eeee-:	.
*	*X8va	*
=50	=50	=50
!	!LO:TX:a:t=loco	!
4EEE-/	4r	f
4G\ 4g	4.b-\ 4.ee- 4.bb-	.
4E-\ 4e-	.	.
.	8b-\ 8ee- 8bb-	.
=51	=51	=51
4GG\ 4G	4b-\ 4ee- 4bb-	.
4EE-\ 4E-	4an\ 4ee- 4aan	.
!	!LO:TX:b:i:t=subito?	!
4EEE-/ 4EE-	4b-\ 4ee- 4bb-	p
!!LO:LB:g=original
=52	=52	=52
4AAA-/ 4AA-	2cc:\ 2aa-: 2eee-:	.
4E-\ 4c	.	.
4r	4a-\ 4aa-	.
=53	=53	=53
!	!LO:TX:b:i:t=ms.	!
*	*8va	*
.	32qqffff/	pp
4a->:\ 4cc>: 4ee->:	4cccc:/ 4eeee-:	.
.	32qqffff/	.
4a->:\ 4cc>: 4ee->:	4cccc:/ 4eeee-:	.
.	32qqffff/	.
4a->:\ 4cc>: 4ee->:	4cccc:/ 4eeee-:	.
*	*X8va	*
=54	=54	=54
!	!LO:TX:a:t=loco	!
4AAA-/	4r	f
4A-\ 4a-	4.cc\ 4.ee- 4.ccc	.
4E-\ 4e-	.	.
.	8cc\ 8ee- 8ccc	.
=55	=55	=55
4AA-\ 4A-	4cc\ 4ee- 4ccc	.
4EE-/ 4E-	4bn\ 4ee- 4bbn	.
!	!LO:TX:b:i:t=subito?	!
4AAA-/ 4AA-	4cc\ 4ee- 4ccc	.
=56	=56	=56
4EEEn/ 4EEn	2een\ 2gg#X 2eeen	.
4G#X\ 4dn	.	.
4r	4bn\ 4bbn	.
=57	=57	=57
*clefG2	*	*
*	*8va	*
.	32qqffff#X/	.
4aan:\ 4ccc#X: 4eeen:	4aaan:/ 4eeeen:	.
!	!	!LO:DY:t=pp.
.	32qqffff#/	pp
4aa:\ 4ccc#: 4eee:	4aaa:/ 4eeee:	.
.	32qqffff#/	.
4aa:\ 4ccc#: 4eee:	4aaa:/ 4eeee:	.
*	*X8va	*
!!LO:LB:g=original
*clefF4	*	*
=58	=58	=58
!	!LO:TX:a:t=loco	!
4EEE-X/	4r	f
4C\ 4c	4.e-\ 4.a- 4.ee-	.
4AA-\ 4A-	.	.
.	8e-\ 8a- 8ee-	.
=59	=59	=59
4CC/ 4C	4e-\ 4a- 4ee-	.
4AAA-/ 4AA-	4dn\ 4a- 4ddn	.
!	!LO:TX:b:i:t=rallent...	!
4FFF/ 4FF	4e-\ 4a- 4ee-	.
=60	=60	=60
*	*8va	*
4EEE-/ 4EE-	4r	.
.	32qqffff/	.
*clefG2	*	*
4ee-:\ 4gg: 4ddd-X: 4eee-:	4bbb-:/ 4eeee-:	.
.	32qqffff/	.
4ee-:\ 4gg: 4ddd-: 4eee-:	4bbb-:/ 4eeee-:	.
=61	=61	=61
4a-:\ 4ee-: 4aa-: 4ccc:	4aaa-:\ 4eeee-: 4aaaa-:	.
*	*X8va	*
!	!LO:TX:a:t=loco	!
4r	4r	.
4r	4r	.
=62:|!	=62:|!	=62:|!
*>D	*>D	*
*clefF4	*	*
!LO:TX:t=P:problem:brak zmiany klucza na F	!	!
.	32qqcc/	.
4FF/	16a-\ 16aa-	.
.	16r	.
.	4r	.
4F\ 4c	.	.
.	8r	.
.	32qqdd/	.
4A-\ 4d	16a-\ 16aa-	.
.	16r	.
.	8r	.
=63	=63	=63
4BBB-/	4r	.
.	32qqcc/	.
4F\ 4c	4a-\ 4aa-	.
.	32qqdd/	.
4A-\ 4d	4a-\ 4aa-	.
!!LO:LB:g=original
=64	=64	=64
4EE-/	4g\ 4ee- 4gg	.
4G\ 4e-	12bb-\L	.
.	12bb-\	.
.	12bb-\J	.
4B-\ 4g	4bb-\	.
=65	=65	=65
4BBB-/	4ee-\ 4gg 4eee-	.
4E-\ 4c	4cc\ 4ccc	.
4G\ 4e-	4g\ 4gg	.
=66	=66	=66
4BB-/	4f\ 4dd 4ff	.
4F\ 4c	12aa-\L	.
.	12aa-\	.
.	12aa-\J	.
4A-\ 4d	4aa-\	.
=67	=67	=67
4BBB-/	4dd\ 4aa- 4ddd	.
4F\ 4B-	4cc\ 4ccc	.
4A-\ 4d	4f\ 4ff	.
=68	=68	=68
4EE-/	4e-\ 4ee-	.
4E-\ 4B-	12gg\L	.
.	12gg\	.
.	12gg\J	.
4G\ 4e-	4gg\	.
=69	=69	=69
*	*^	*
8r	4cc\ 4ccc	2gg/	.
8EE-/L 8E-	.	.	.
8DD/ 8D	4b-\ 4bb-	.	.
8DD-X/ 8D-X	.	.	.
8CC/ 8C	4g\ 4ee- 4gg	4ryy	.
8CC-X/J 8C-X	.	.	.
*	*v	*v	*
=70	=70	=70
.	32qqcc/	.
4BBB-/ 4BB-	16a-\ 16aa-	.
.	16r	.
.	8r	.
4F\ 4c	4r	.
.	32qqdd/	.
4A-\ 4d	16a-\ 16aa-	.
.	16r	.
.	8r	.
!!LO:LB:g=original
=71	=71	=71
4DD/	4r	.
.	32qqcc/	.
4F\ 4c	4a-\ 4aa-	.
.	32qqdd/	.
4A-\ 4d	4a-\ 4aa-	.
=72	=72	=72
4EE-/	4g\ 4ee- 4gg	.
4G\ 4e-	12bb-\L	.
.	12bb-\	.
.	12bb-\J	.
4B-\ 4g	4bb-\	.
=73	=73	=73
4GGG/ 4GG	4ee-\ 4eee-	.
4G\ 4e-	4b-\ 4bb-	.
4B-\ 4b-	4g\ 4gg	.
=74	=74	=74
4AAA-/ 4AA-	8f'\L 8cc 8ee- 8ff	.
.	8en'\ 8een	.
4F\ 4e-	8f'\ 8ff	.
.	8f#X'\ 8ff#X	.
4c\ 4f	8g'\ 8gg	.
.	8a-'\J 8aa-	.
=75	=75	=75
4BBB-/ 4BB-	8an\L 8aan	.
.	8b-\ 8bb-	.
4F\ 4B- 4d 4a-	8bn\ 8bbn	.
.	8cc\ 8ccc	.
4r	8cc#X\ 8ccc#X	.
.	8dd\J 8ddd	.
=76	=76	=76
4EE-/	4ee-\ 4eee-	.
.	16qqg/LL	pp
.	16qqb-/JJ	.
*clefG2	*	*
4e-/	4ee-\	.
.	16qqgg/LL	.
.	16qqbb-/JJ	.
4ee-\	4eee-\	.
=77	=77	=77
.	16qqgg/LL	.
.	16qqbb-/JJ	.
*	*8va	*
4eee-\	4eeee-\	.
*	*X8va	*
4r	4r	.
4r	4r	.
!!LO:PB:g=original
*clefF4	*	*
==78	==78	==78
*>E	*>E	*
*k[f#c#g#d#a#]	*k[f#c#g#d#a#]	*
*B:	*B:	*
!	!	!LO:DY:t=mf.
4BBB/	2.dd#~\ 2.bb 2.ddd#	mf
4F#\ 4d#	.	<
4d#\ 4b	.	[[
*clefG2	*	*
=79	=79	=79
.	32qqddd#/	.
!	!	!LO:DY:t=pp.
4ee#X\ 4bb	4dddn/ 4ggg#	.pp
.	32qqddd#X/	.
4ee#\ 4bb	4dddn/ 4ggg#X	.
.	32qqddd#X/	.
4ee#\ 4bb	4dddn/ 4ggg#	.
*clefF4	*	*
=80	=80	=80
4BBB/	2.dd#\ 2.bb 2.ddd#X	<
4F#\ 4d#	.	.
4d#\ 4b	.	[[
*clefG2	*	*
=81	=81	=81
.	32qqddd#/	.
!	!	!LO:DY:t=pp.
4ee#X\ 4bb	4dddn/ 4ggg#	pp
.	32qqddd#X/	.
4ee#\ 4bb	4dddn/ 4ggg#X	.
.	32qqddd#X/	.
4ee#\ 4bb	4dddn/ 4ggg#	.
*clefF4	*	*
=82	=82	=82
!	!LO:TX:b:i:t=scherzando	!
4BB\	8bbM\ 8ddd#	.
.	8r	.
4F#\ 4d#	8r	.
.	16r	.
.	16dd#\ 16bb	.
4d#\ 4b	4dd#\ 4bb	.
=83	=83	=83
4AA#X\	8ccc#M\ 8fff#	.
.	8r	.
4F#\ 4c#	8r	.
.	16r	.
.	16ff#\ 16ccc#	.
!	!LO:TX:t=P:problem:strzałka pokazująca pion akordowy	!
4c#\ 4a#	4ff#\ 4ccc#	.
=84	=84	=84
4GG#\	8gg#M\ 8bb	.
.	8r	.
4D#\ 4B	8r	.
.	16r	.
.	16b\ 16gg#	.
4B\ 4g#	4b\ 4gg#	.
!!LO:LB:g=original
=85	=85	=85
4FF#/	8aa#m\ 8ccc#	.
.	8r	.
4F#\ 4e	8r	.
.	16r	.
.	16cc#\ 16aa#	.
4e\ 4a#	4cc##X\ 4aa#	.
=86	=86	=86
4BBB/	2.dd#\ 2.bb 2.ddd#	<
4F#\ 4d#	.	.
4d#\ 4b	.	[[
*clefG2	*	*
=87	=87	=87
.	32qqddd#/	.
!	!	!LO:DY:t=pp.
4ee#X\ 4bb	4dddn/ 4ggg#	pp
.	32qqddd#X/	.
4ee#\ 4bb	4dddn/ 4ggg#X	.
.	32qqddd#X/	.
4ee#\ 4bb	4dddn/ 4ggg#	.
*clefF4	*	*
=88	=88	=88
4BBB/	2.dd#\ 2.bb 2.ddd#	.
4F#\ 4d#	.	.
4d#\ 4b	.	.
*clefG2	*	*
=89	=89	=89
.	32qqddd#/	.
4ee#X\ 4bb	4dddn/ 4ggg#	.
.	32qqddd#X/	.
4ee#\ 4bb	4dddn/ 4ggg#	.
.	32qqddd#X/	.
4ee#\ 4bb	4dddn/ 4ggg#	.
*clefF4	*	*
=90	=90	=90
(4BB\	(2dd#\ 2bb 2ddd#	>
4F#\ 4d#	.	.
4d#\) 4b	4bb'\) 4bbb	]
=91	=91	=91
!	!LO:TX:b:i:t=subito?	!LO:DY:t=mf.
4GG#\	2bb\ 2ddd# 2bbb	mf
4E#X\ 4d#	.	.
4d#\ 4b	4aa#\ 4aaa#	.
!!LO:LB:g=original
=92	=92	=92
4AA#\	4gg#M\ 4ccc##X 4ggg#	.
4G#\ 4c##X	4ff##X\ 4fff##X	.
4c##\ 4a#	4gg#\ 4ggg#	.
=93	=93	=93
4DD#/	2ff##X\ 2ddd# 2aaa#	>
4F##X\ 4d#	.	]
4d#\ 4a#	4dd#\ 4ddd#	.
=94	=94	=94
4FF##X\	8aa#m\ 8ddd#	.
.	8r	.
4c#\ 4d#	8r	.
.	16r	.
.	16dd#\ 16aa#	.
4d#^^\ 4a#	4dd#\ 4aa#	.
=95	=95	=95
4GG#\	8bbM\ 8ddd#	.
.	8r	.
4B\ 4d#	8r	.
.	16r	.
!	!LO:TX:b:i:t=rit_e_nu_to:problem:ex=s	!
.	16dd#\ 16bb	.
4d#\ 4b	4dd#\ 4bb	.
=96	=96	=96
4AA#\	8ccc#M\ 8fff#	.
.	8r	.
*clefG2	*	*
4e/ 4f#	8r	.
.	16r	.
.	16ff#\ 16ccc#	.
4f#^^/ 4cc#	4ff#\ 4ccc#	.
*clefF4	*	*
=97	=97	=97
4BB\	8ddd#m\ 8fff#	.
.	8r	.
*clefG2	*	*
4d#/ 4f#	8r	.
.	16r	.
.	16ff#\ 16ddd#	.
4f#^^/ 4dd#	4ff#\ 4ddd#	.
*clefF4	*	*
=98	=98	=98
!	!LO:TX:b:i:t=appasionato.	!
4EE#X/	4bb\ 4dddn 4bbb	.
4E#X\ 4dn	4aa#\ 4aaa#	.
4d\ 4b	4gg#\ 4ggg#	.
!!LO:LB:g=original
=99	=99	=99
(4FF#\	(2ff#\ 2ddd# 2fff#	.
4F#\ 4d#	.	.
4d#'\) 4b	4ff##X\) 4ddd# 4fff##X	.
=100	=100	=100
!	!LO:TX:b:i:t=subito?	!LO:DY:t=p.
4FF#\	2gg#\ 2eee 2ggg#	p
4F#\ 4g#	.	.
4e\ 4a#	4ee\ 4aa# 4eee	.
=101	=101	=101
4BB\	2.dd#\ 2.bb 2.ddd#	.
4F#\ 4d#	.	.
4d#\ 4b	.	.
=102	=102	=102
4FF##X\	8aa#m\ 8ddd#	.
.	8r	.
4c#\ 4d#	8r	.
.	16r	.
.	16dd#\ 16aa#	<
4d#^^\ 4a#	4dd#\ 4aa#	.
=103	=103	=103
4GG#\	8bbM\ 8ddd#	.
.	8r	.
4B\ 4d#	8r	.
.	16r	.
.	16dd#\ 16bb	.
4d#^^\ 4b	4dd#\ 4bb	.
=104	=104	=104
4AA#\	8ccc#M\ 8fff#	.
.	8r	.
*clefG2	*	*
4e/ 4f#	8r	.
.	16r	.
.	16ff#\ 16ccc#	.
4f#^^</ 4cc#	4ff#\ 4ccc#	.
*clefF4	*	*
=105	=105	=105
4BB\	8ddd#m\ 8fff#	.
.	8r	.
*clefG2	*	*
4d#/ 4f#	8r	.
.	16r	.
.	16ff#\ 16ddd#	.
4f#^^</ 4dd#	4ff#\ 4ddd#	.
*clefF4	*	*
=106	=106	=106
4EE#X/	4bb\ 4dddn 4bbb	[
4E#X\ 4dn	4aa#\ 4aaa#	.
4d\ 4b	4gg#\ 4ggg#	.
!!LO:LB:g=original
=107	=107	=107
(4FF#\	(2ff#\ 2ddd# 2fff#	.
4F#\ 4d#	.	.
4d#'\) 4b	4ff##X\) 4ddd# 4fff##X	.
=108	=108	=108
4FF#\	2gg#\ 2eee 2ggg#	.
4F#^^\ 4g#	.	.
4e^^\	4a#\ 4ee 4aa#	.
=109	=109	=109
2BB\ 2d#	2b\ 2dd# 2bb	.
4d#\	4b\	.
*clefG2	*	*
=110||	=110||	=110||
*>F	*>F	*
*ok[fncngndnanb-e-a-]	*ok[fncngndnanb-e-a-]	*
*k[b-e-a-]	*k[b-e-a-]	*
*E-:	*E-:	*
8d/L	8b-\L	<
8e-/J	8cc-X\J	.
8d/L	8b-\L	.
8e-/J	8cc-\J	.
8d/L	8b-\L	.
8e-/J	8cc-\J	.
=111	=111	=111
8d/L	8b-\L	.
8g-X/	8ee-\	.
8f/	8dd\	.
8g-/	8ee-\	.
8f/	8dd\	.
8g-/J	8ee-\J	.
=112	=112	=112
8f/L	8dd\L	.
8an/	8ee-\ 8gg-X	.
8b-/	8dd\ 8ff	.
8a/	8ee-\ 8gg-	.
8b-/	8dd\ 8ff	.
8a/J	8ee-\J 8gg-	.
=113	=113	=113
4b-/	4dd\ 4ff	.
*clefF4	*	*
4BB-\ 4B-	4b-\ 4bb-	.
4BBB-/ 4BB-	4bb-\ 4bbb-	[[
!!LO:LB:g=original
=114	=114	=114
*clefG2	*	*
!	!	!LO:DY:a
8B-/L 8d	8f\L 8b-	<
8e-/	8g-X\ 8cc-X	.
8d/	8f\ 8b-	.
8e-/	8g-\ 8cc-	.
8d/	8f\ 8b-	.
8e-/J	8g-\J 8cc-	.
=115	=115	=115
8d/L	8f\L 8b-	.
8g-X/	8cc-X\ 8ee-	.
8f/	8b-\ 8dd	.
8g-/	8cc-\ 8ee-	.
8f/	8b-\ 8dd	.
8g-/J	8cc-\J 8ee-	.
=116	=116	=116
8f/L	8b-\L 8dd	.
8an/	8ee-\ 8gg-X	.
8b-/	8dd\ 8ff	.
8a/	8ee-\ 8gg-	.
8b-/	8dd\ 8ff	.
8a/J	8ee-\J 8gg-	.
=117	=117	=117
4b-/	4dd\ 4ff	.
*clefF4	*	*
4BB-/ 4B-	4b-\ 4bb-	.
4BBB-/ 4BB-	4bb-\ 4bbb-	.
*clefG2	*	*
=118	=118	=118
4cc\	4ee-\ 4ff	.
*clefF4	*	*
4BB-/ 4B-	4b-\ 4bb-	.
4BBB-/ 4BB-	4bb-\ 4bbb-	.
*clefG2	*	*
=119	=119	=119
4cc#X\	4een\ 4ff	.
*clefF4	*	*
4BB-/ 4B-	4b-\ 4bb-	.
4BBB-/ 4BB-	4bb-\ 4bbb-	.
*clefG2	*	*
=120	=120	=120
4dd\	4ff\	.
*clefF4	*	*
4BB-/ 4B-	4b-\ 4bb-	.
4BBB-/ 4BB-	4bb-\ 4bbb-	[[
!!LO:PB:g=original
=121	=121	=121
2r;	2r;	.
4r	4r	.
=122	=122	=122
2r	4r	.
!	!LO:TX:a:i:t=staccato.	!
.	8g\L 8ee-	.
!	!	!LO:DY:t=p.
.	8ee-\ 8gg	p
4r	8ee-\ 8gg	.
.	8g\J 8dd	.
=123	=123	=123
4FF/	8a-\L 8cc	.
.	8cc\ 8aa-	.
4F\ 4c	8cc\ 8aa-	.
.	8a-\ 8cc	.
4A-\ 4d	8a-\ 8dd	.
.	8dd\J 8aa-	.
=124	=124	=124
4BBB-/	8dd\L 8aa-	.
.	8a-\ 8cc	.
4F\ 4c	8a-\ 8cc	.
.	8cc\ 8aa-	.
4A-\ 4d	8dd\ 8aa-	.
.	8a-\J 8dd	.
=125	=125	=125
4EE-/	8g\L 8ee-	.
.	8ee-\ 8gg	.
8F\L 8f	8ee-\ 8aa-	.
8F#X\J 8f#X	8ee-\ 8aan	.
4G\ 4g	8ee-\ 8bb-	.
.	8g\J 8ee-	.
=126	=126	=126
4EEE-/	8gg\L 8eee-	>
.	8ee-\ 8gg	.
4G\ 4c	8gg\ 8ccc	.
.	8cc\ 8gg	.
4B-\ 4e-	8ee-\ 8gg	.
.	8g\J 8ee-	]
=127	=127	=127
4BBB-/	8a-\L 8dd	.
.	8dd\ 8ff	.
8E-\L 8e-	8dd\ 8ff#X	.
8En\J 8en	8dd\ 8gg	.
4F\ 4f	8dd\ 8aa-	.
.	8a-\J 8dd	.
!!LO:LB:g=original
=128	=128	=128
*8ba	*	*
4BBBB-/	8aa-\L 8ddd	>
.	8dd\ 8aa-	.
*X8ba	*	*
4F\ 4c	8aa-\ 8ccc	.
.	8cc\ 8aa-	.
4A-\ 4d	8dd\ 8aa-	]
.	8a-\J 8dd	.
=129	=129	=129
4EE-/	8g\L 8ee-	.
.	8ee-\ 8ff	.
8AAn\L 8An	8ee-\ 8ff#X	.
8BB-\J 8B-	8ee-\ 8gg	.
4E-\ 4e-	8gg\ 8ccc	.
.	8cc\J 8gg	.
=130	=130	=130
!	!LO:TX:b:i:t=rit.	!
!	!LO:TX:b:t=P:problem:korekta ołówkiem	!
8r	8gg\L 8bb-	.
8EE-/L 8E-	8b-\ 8gg	.
8DD/ 8D	8b-\ 8ff	.
8DD-X/ 8D-X	8ff\ 8bb-	.
8CC/ 8C	8ee-\ 8bb-	.
8CC-X/J 8C-X	8b-\J 8dd	.
=131	=131	=131
4BBB-/ 4BB-	8a-\L 8cc	.
.	8cc\ 8aa-	.
4F\ 4c	8cc\ 8aa-	.
.	8a-\ 8cc	.
4A-\ 4d	8a-\ 8dd	.
.	8dd\J 8aa-	.
=132	=132	=132
4DD/	8dd\L 8aa-	.
.	8a-\ 8cc	.
4F\ 4c	8a-\ 8cc	.
.	8cc\ 8aa-	.
4A-\ 4d	8dd\ 8aa-	.
.	8a-\J 8dd	.
=133	=133	=133
4EE-/	8g\L 8ee-	.
.	8ee-\ 8gg	.
8F\L 8f	8ee-\ 8aa-	.
8F#X\J 8f#X	8ee-\ 8aan	.
4G\ 4g	8ee-\ 8bb-	.
.	8g\J 8ee-	.
!!LO:LB:g=original
=134	=134	=134
4GGG/	8gg\L 8eee-	>
.	8ee-\ 8gg	.
4G\ 4c	8ee-\ 8bb-	.
.	8b-\ 8ee-	.
4B-\ 4e-	8ee-\ 8gg	]
.	8g\J 8ee-	.
=135	=135	=135
4EEE-/ 4EE-	8c\L 8b-	.
.	8b-\ 8cc	.
8BB-\L 8B-	8b-\ 8cc#X	.
!	!LO:TX:b:t=cres_:problem:dynamics with extention lines	!
8AA-\J 8A-	8b-\ 8dd	<
4GG/ 4G	8b-\ 8ee-	.
.	8e-\J 8b-	.
=136	=136	=136
4FFF/ 4FF	8f\L 8an	.
.	8ee-\ 8ff	.
8E-\L 8e-	8ee-\ 8ff#X	.
8D\J 8d	8ee-\ 8gg	.
4C\ 4c	8ee-\ 8aan	.
.	8a\J 8ee-	.
=137	=137	=137
!	!LO:TX:t=P:problem:mixed beam	!
8BB-\L 8B-	8b-\L 8dd 8bb-	.
8BB-\ 8F	8B-/J 8d	<
8F\ 8B-	8d\L 8b-	.
*clefG2	*	*
8B-\J 8f	8b-\ 8dd	.
8f\L 8b-	8dd\ 8bb-	.
8b-\J 8ff	8bb-\J 8ddd	.
=138	=138	=138
4ff\ 4bb-	4ddd\ 4bbb-	[
4r	8g\L 8ee-	.
.	8ee-\ 8gg	.
4r	8ee-\ 8gg	<
.	8g\J 8dd	.
*clefF4	*	*
=139	=139	=139
!LO:TX:t=P:problem:brak zmiany klucza na F	!	!
4FF/	8a-\L 8cc	.
.	8cc\ 8aa-	.
4F\ 4c	8cc\ 8aa-	.
.	8a-\ 8cc	.
4A-\ 4d	8a-\ 8dd	.
.	8dd\J 8aa-	.
!!LO:LB:g=original
=140	=140	=140
4BBB-/	8dd\L 8aa-	.
.	8a-\ 8cc	.
4F\ 4c	8a-\ 8cc	.
.	8cc\ 8aa-	.
4A-\ 4d	8dd\ 8aa-	.
.	8a-\J 8dd	.
=141	=141	=141
4EE-/	8g\L 8ee-	ff
.	8ee-\ 8gg	.
8F^^\L 8f	8ee-\ 8aa-	.
8F#X^^\J 8f#X	8ee-\ 8aan	.
4G^^\ 4g	8ee-\ 8bb-	.
.	8g\J 8ee-	.
=142	=142	=142
4EEE-/	8gg\L 8eee-	.
.	8ee-\ 8gg	.
4G\ 4c	8gg\ 8ccc	.
.	8cc\ 8gg	.
4B-\ 4e-	8ee-\ 8gg	.
.	8g\J 8ee-	.
=143	=143	=143
4BBB-/	8b-\L 8dd	.
.	8dd\ 8ff	.
8E-^^\L 8e-	8dd\ 8ff#X	.
8En^^\J 8en	8dd\ 8gg	.
4F^^\ 4f	8dd\ 8aa-	.
.	8a-\J 8dd	.
*X8ba	*	*
=144	=144	=144
*8ba	*	*
4BBB-/	8aa-\L 8ddd	.
.	8dd\ 8aa-	.
4F\ 4c	8aa-\ 8ccc	.
.	8cc\ 8aa-	.
4A-\ 4d	8dd\ 8aa-	.
.	8a-\J 8dd	.
=145	=145	=145
4EE-/	8g\L 8ee-	.
.	8ee-\ 8ff	.
8AAn^^\L 8An	8ee-\ 8ff#X	.
8BB-^^\J 8B-	8ee-\ 8gg	.
4E-^^\ 4e-	8gg\ 8ccc	.
.	8cc\J 8gg	.
!!LO:LB:g=original
=146	=146	=146
8r	8gg\L 8bb-	.
8EE-\L 8E-	8b-\ 8gg	.
8DD\ 8D	8b-\ 8ff	.
8DD-X\ 8D-X	8ff\ 8bb-	.
8CC\ 8C	8ee-\ 8bb-	.
8CC-X\J 8C-X	8b-\J 8dd	.
=147	=147	=147
4BBB-/ 4BB-	8a-\L 8cc	.
.	8cc\ 8aa-	.
4F\ 4c	8cc\ 8aa-	.
.	8a-\ 8dd	.
4A-\ 4d	8a-\ 8dd	.
.	8dd\J 8aa-	.
=148	=148	=148
4DD/	8dd\L 8aa-	.
.	8a-\ 8cc	.
4F\ 4c	8a-\ 8cc	.
.	8cc\ 8aa-	.
4A-\ 4d	8dd\ 8aa-	.
.	8a-\J 8dd	.
=149	=149	=149
4EE-/	8g\L 8ee-	.
.	8ee-\ 8gg	.
8F^^\L 8f	8ee-\ 8aa-	.
8F#X^^\J 8f#X	8ee-\ 8aan	.
4G^^\ 4g	8ee-\ 8bb-	.
.	8g\J 8ee-	.
=150	=150	=150
4GGG/ 4GG	8gg\L 8eee-	.
.	8ee-\ 8gg	.
4G\ 4c	8ee-\ 8bb-	.
.	8b-\ 8ee-	.
4B-\ 4e-	8ee-\ 8gg	.
.	8g\J 8ee-	.
=151	=151	=151
4AAA-/ 4AA-	8f\L 8ee-	ff
.	8ee-\ 8ff	.
8E-^^\L 8e-	8ee-\ 8ff#X	.
8D^^\J 8d	8ee-\ 8gg	.
4C^^\ 4c	8ee-\ 8aa-	.
.	8a-\J 8ee-	.
=152	=152	=152
4BBB-/ 4BB-	8b-\L 8dd	.
.	8aa-\ 8bb-	.
8A-^^\L 8a-	8aa-\ 8bbn	.
8G^^\J 8g	8aa-\ 8ccc	.
4F^^\ 4f	8aa-\ 8ddd	.
.	8dd\J 8aa-	.
!!LO:LB:g=original
=153	=153	=153
8E-\ 8e-	8ee-\ 8gg 8eee-	.
8E-\L 8B-	8e-\L 8g	.
8B-\J 8e-	8g\ 8ee-	.
*clefG2	*	*
8e-/L 8b-	8ee-\ 8gg	.
8b-/J 8ee-	8gg\J 8eee-	.
*	*8va	*
!LO:TX:t=P:problem:belka przez kreskę taktową	!LO:TX:t=P:problem:belka przez kreskę taktową	!
8ee-\L 8bb-	8eee-\L 8ggg	.
=154	=154	=154
8bb-\J 8eee-	8ggg\J 8eeee-	.
*clefF4	*	*
*	*X8va	*
!	!LO:TX:a:t=loco	!
8r	8r	.
4r	4r	.
4r	4e-\ 4ee-	.
=155	=155	=155
4AAA-/ 4AA-	4r	.
!	!LO:TX:b:i:t=basso marcatissimo	!
8A-\L 8a-	4.cc\ 4.ee- 4.ccc	.
8F\ 8f	.	.
8E-\ 8e-	.	.
8C\J 8c	8cc\ 8ee- 8ccc	.
=156	=156	=156
8AA-/L 8A-	4cc\ 4ee- 4ccc	.
8FF/ 8F	.	.
8EE-/ 8E-	4bn\ 4ee- 4bbn	.
8CC/ 8C	.	.
8AAA-/ 8AA-	4cc\ 4ee- 4ccc	.
8FFF/J 8FF	.	.
=157	=157	=157
4EEE-/ 4EE-	2ee-\ 2gg 2eee-	.
4G\ 4d-X 4e-	.	.
4r	4b-\ 4bb-	.
=158	=158	=158
*clefG2	*	*
*	*8va	*
!	!	!LO:DY:t=p.
.	32qqffff\	p
4gg\ 4ddd-X 4ggg	4bbb-\ 4eeee-	.
.	32qqffff\	.
4gg\ 4ddd- 4ggg	4bbb-\ 4eeee-	.
.	32qqffff\	.
4gg\ 4ddd- 4ggg	4bbb-\ 4eeee-	.
*	*X8va	*
*clefF4	*	*
=159	=159	=159
!	!LO:TX:a:t=loco	!
4EEE-/ 4EE-	4r	.
!	!	!LO:DY:t=ff.
8G\L 8g	4.b-\ 4.ee- 4.bb-	ff
8E-\ 8e-	.	.
8C\ 8c	.	.
8BB-\J 8B-	8b-\ 8ee- 8bb-	.
!!LO:PB:g=original
=160	=160	=160
8GG/L 8G	4b-\ 4ee- 4bb-	.
8EE-/ 8E-	.	.
8CC/ 8C	4an\ 4ee- 4aan	.
8BBB-/ 8BB-	.	.
8GGG/ 8GG	4b-\ 4ee- 4bb-	.
8EEE-/J 8EE-	.	.
=161	=161	=161
4AAA-/ 4AA-	2cc\ 2aa- 2eee-	.
4E-\ 4c	.	.
4r	4a-\ 4aa-	.
*clefG2	*	*
=162	=162	=162
*	*8va	*
.	32qqffff\	.
4aa-\ 4ccc 4eee-	4cccc\ 4eeee-	.
.	32qqffff\	.
4aa-\ 4ccc 4eee-	4cccc\ 4eeee-	.
.	32qqffff\	.
4aa-\ 4ccc 4eee-	4cccc\ 4eeee-	.
*	*X8va	*
*clefF4	*	*
=163	=163	=163
!LO:TX:t=P:problem:brak zmiany klucza na F	!LO:TX:a:t=loco	!
4AAA-/ 4AA-	4r	.
8A-\L 8a-	4.cc\ 4.ee- 4.ccc	.
8F\ 8f	.	.
8E-\ 8e-	.	.
8C\J 8c	8cc\ 8ee- 8ccc	.
=164	=164	=164
8AA-/L 8A-	4cc\ 4ee- 4ccc	.
8FF/ 8F	.	.
8EE-/ 8E-	4bn\ 4ee- 4bbn	.
8CC/ 8C	.	.
8AAA-/ 8AA-	4cc\ 4ee- 4ccc	.
8FFF/J 8FF	.	.
=165	=165	=165
4EEEn/ 4EEn	2een\ 2gg#X 2eeen	.
4G#X\ 4dn	.	.
4r	4bn\ 4bbn	.
*clefG2	*	*
=166	=166	=166
*	*8va	*
.	32qqffff#X\	.
4aan\ 4ccc#X 4eeen	4aaan\ 4eeeen	.
.	32qqffff#\	.
4aa\ 4ccc# 4eee	4aaa\ 4eeee	.
!	!LO:TX:a:t=loco	!
.	32qqffff#\	.
*	*X8va	*
4aa\ 4ccc# 4eee	4aa\ 4eee	.
!!LO:LB:g=original
*clefF4	*	*
=167	=167	=167
4EEE-/ 4EE-	4r	.
8C\L 8c	4.e-\ 4.a- 4.ee-	.
8AA-\ 8A-	.	.
8FF\ 8F	.	.
8EE-\J 8E-	8e-\ 8a- 8ee-	.
=168	=168	=168
8DD/L 8D	4e-\ 4a- 4ee-	.
8CC/ 8C	.	.
8BBB-/ 8BB-	4dn\ 4a- 4dd	.
8AAA-/ 8AA-	.	.
8GGG/ 8GG	4e-\ 4a- 4ee-	.
8FFF/J 8FF	.	.
=169	=169	=169
4EEE-/ 4EE-	4r	.
.	32qqfff\	pp
*clefG2	*	*
*	*8va	*
!LO:TX:t=P:problem:korekta ołówkiem	!	!
!LO:SIC:v:n=2:s=4ddd-	!	!
4gg\ 4ddd 4eee-	4bbb-\ 4eeee-	.
!	!LO:TX:b:i:t=rit._	!
.	32qqffff\	.
!LO:SIC:v:n=2:s=4ddd-	!	!
4gg\ 4ddd 4eee-	4bbb-\ 4eeee-	.
=170	=170	=170
4a-\ 4ee- 4ccc	4aaa-\ 4eeee- 4aaaa-	.
*	*X8va	*
!	!LO:TX:b:i:t=a tempo	!
4r	8a-\L 8ee-	.
.	8ee-\ 8aa-	.
4r	8ee-\ 8aa-	.
.	8a-\J 8dd	.
*clefF4	*	*
=171	=171	=171
4FF\	8a-\L 8cc	ff
.	8cc\ 8aa-	.
4F\ 4c	8cc\ 8aa-	.
.	8a-\ 8cc	.
4A-\ 4d	8a-\ 8dd	.
.	8dd\J 8aa-	.
=172	=172	=172
4BBB-/	8dd\L 8aa-	.
.	8a-\ 8cc	.
4F\ 4c	8a-\ 8cc	.
.	8cc\ 8aa-	.
4A-\ 4d	8cc\ 8aa-	.
.	8a-\J 8dd	.
!!LO:LB:g=original
=173	=173	=173
4EE-/	8g\L 8ee-	.
.	8ee-\ 8gg	.
8F^^\L 8f	8ee-\ 8aa-	.
8F#X^^\J 8f#X	8ee-\ 8aan	.
4G^^\ 4g	8ee-\ 8bb-	.
.	8g\J 8ee-	.
=174	=174	=174
4EEE-/	8gg\L 8eee-	.
.	8ee-\ 8gg	.
4G\ 4c	8gg\ 8ccc	.
.	8cc\ 8gg	.
4B-\ 4e-	8ee-\ 8gg	.
.	8g\J 8ee-	.
=175	=175	=175
4BBB-/	8a-\L 8dd	.
.	8dd\ 8ff	.
8E-^^\L 8e-	8dd\ 8ff#X	.
8En^^\J 8en	8dd\ 8gg	.
4F^^\ 4f	8dd\ 8aa-	.
.	8a-\J 8dd	.
*X8ba	*	*
=176	=176	=176
*8ba	*	*
4BBB-/	8aa-\L 8ddd	.
.	8dd\ 8aa-	.
4F\ 4c	8aa-\ 8ccc	.
.	8cc\ 8aa-	.
4A-\ 4d	8dd\ 8aa-	.
.	8a-\J 8dd	.
=177	=177	=177
4EE-/	8g\L 8ee-	.
.	8ee-\ 8ff	.
8AAn^^\L 8An	8ee-\ 8ff#X	.
8BB-^^\J 8B-	8ee-\ 8gg	.
4E-^^\ 4e-	8gg\ 8ccc	.
.	8cc\J 8gg	.
=178	=178	=178
8r	8gg\L 8bb-	.
8EE-/L 8E-	8b-\ 8gg	.
8DD/ 8D	8b-\ 8ff	.
8DD-X/ 8D-X	8ff\ 8bb-	.
8CC/ 8C	8ee-\ 8bb-	.
8CC-X/J 8C-X	8b-\J 8dd	.
!!LO:LB:g=original
=179	=179	=179
4BBB-/ 4BB-	8a-\L 8cc	.
.	8cc\ 8aa-	.
4F\ 4c	8cc\ 8aa-	.
.	8a-\ 8cc	.
4A-\ 4d	8a-\ 8dd	.
.	8dd\J 8aa-	.
=180	=180	=180
4DD/	8dd\L 8aa-	.
.	8a-\ 8cc	.
4F\ 4c	8a-\ 8cc	.
.	8cc\ 8aa-	.
4A-\ 4d	8dd\ 8aa-	.
.	8a-\J 8dd	.
=181	=181	=181
4EE-/	8g\L 8ee-	.
.	8ee-\ 8gg	.
8F^^\L 8f	8ee-\ 8aa-	.
8F#X^^\J 8f#X	8ee-\ 8aan	.
4G^^\ 4g	8ee-\ 8bb-	.
.	8g\J 8ee-	.
=182	=182	=182
*	*8va	*
4GGG/	8ggg\L 8eeee-	<
*	*X8va	*
.	8eee-\ 8ggg	.
4G\ 4c	8bb-\	.
.	8b-\ 8ee-	.
4B-\ 4e-	8ee-\ 8gg	.
.	8g\J 8ee-	.
=183	=183	=183
!	!LO:TX:b:i:t=ritar_dan_do:problem:with extention lines	!
4AAA-/ 4AA-	8f\L 8ee-	.
.	8ee-\ 8ff	.
8E-\L 8e-	8ee-\ 8ff#X	.
8D\J 8d	8ee-\ 8gg	.
4C\ 4c	8ee-\ 8aa-	.
.	8a-\J 8ee-	.
=184	=184	=184
4BBB-/ 4BB-	8b-\L 8dd	.
.	8aa-\ 8bb-	.
8A-\L 8a-	8aa-\ 8bbn	.
8G\J 8g	8aa-\J 8bb	.
4F;\ 4f	4dd;\ 4aa- 4ccc	.
32qqBB-;\ 32qqB-	16qqa-\ 16qqdd 16qqaa-	.
!!LO:LB:g=original
=185||	=185||	=185||
*>G	*>G	*
!	!LO:TX:a:i:t=Più presto._	!LO:DY:t=fff.
4EEE-/ 4EE-	2.g\ 2.ee- 2.gg	fff
4BB-\ 4G	.	.
4G\ 4e-	.	.
=186	=186	=186
.	32qqg/	.
4An\ 4e-	4f#X\ 4cc	.
*clefG2	*	*
4an/	4ee-\ 4ff#X 4ccc	.
*	*8va	*
4aan\	4eee-\ 4fff#X 4cccc	.
*	*X8va	*
*clefF4	*	*
=187	=187	=187
4EEE-/ 4EE-	2.g\ 2.ee- 2.gg	.
4BB-\ 4G	.	.
4G\ 4e-	.	.
=188	=188	=188
.	32qqg/	.
4An\ 4e-	4f#X\ 4cc	.
*clefG2	*	*
4an/	4ee-\ 4ff#X 4ccc	.
*	*8va	*
4aan\	4eee-\ 4fff#X 4cccc	.
*	*X8va	*
*clefF4	*	*
=189	=189	=189
4EE-\	4.g\ 4.ee- 4.gg	.
4BB-\ 4G	.	.
.	8g\ 8ee- 8gg	.
4G\ 4e-	4g\ 4ee- 4gg	.
=190	=190	=190
4DD\	4.b-\ 4.ff 4.bb-	.
4BB-\ 4F	.	.
.	8b-\ 8ff 8bb-	.
4F\ 4B-	4b-\ 4ff 4bb-	.
=191	=191	=191
4CC/	4.e-\ 4.g 4.ee-	.
4C\ 4G	.	.
.	8e-\ 8g 8ee-	.
4G\ 4c	4e-\ 4g 4ee-	.
!!LO:LB:g=original
=192	=192	=192
4BBB-/	4.f\ 4.b- 4.ff	.
4BB-\ 4A-	.	.
.	8f\ 8b- 8ff	.
4A-\ 4d	4f\ 4b- 4ff	.
=193	=193	=193
4GGG/	2.g\ 2.ee- 2.gg	.
4BB-\ 4G	.	.
4G\ 4e-	.	.
=194	=194	=194
.	32qqg/	.
4An\ 4e-	4f#X\ 4cc	.
*clefG2	*	*
4an/	4ee-\ 4ff#X 4ccc	.
*	*8va	*
4aan\	4eee-\ 4fff#X 4cccc	.
*	*X8va	*
*clefF4	*	*
=195	=195	=195
4GGG/	2.g\ 2.ee- 2.gg	.
4BB-\ 4G	.	.
4G\ 4e-	.	.
=196	=196	=196
.	32qqg/	.
4An\ 4e-	4f#X\ 4cc	.
*clefG2	*	*
4an/	4ee-\ 4ff#X 4ccc	.
*	*8va	*
4aan\	4eee-\ 4fff#X 4cccc	.
*	*X8va	*
*clefF4	*	*
=197	=197	=197
4EE-\	4.g\ 4.ee- 4.gg	.
4BB-\ 4G	.	.
.	8g\ 8ee- 8gg	.
4G\ 4e-	4g\ 4ee- 4gg	.
=198	=198	=198
4DD/	4.b-\ 4.ff 4.bb-	.
4BB-\ 4F	.	.
.	8b-\ 8ff 8bb-	.
4F\ 4B-	4b-\ 4ff 4bb-	.
=199	=199	=199
4CC/	4.ee-\ 4.gg 4.eee-	.
4C\ 4G	.	.
.	8ee-\ 8gg 8eee-	.
4G\ 4c	4ee-\ 4gg 4eee-	.
!!LO:PB:g=original
=200	=200	=200
4BBB-/	4.ff\ 4.bb- 4.fff	.
4BB-\ 4A-	.	.
.	8ff\ 8bb- 8fff	.
4A-\ 4d	4ff\ 4bb- 4fff	.
=201	=201	=201
4EE-/	4.gg\ 4.eee- 4.ggg	.
4BB-\ 4G	.	.
.	8gg\ 8eee- 8ggg	.
4G\ 4e-	4gg\ 4eee- 4ggg	.
=202	=202	=202
!	!LO:TX:b:i:t=acccel._	!
4DD/	4.bb-\ 4.fff 4.bbb-	.
4BB-\ 4F	.	.
.	8bb-\ 8fff 8bbb-	.
4F\ 4B-	4bb-\ 4fff 4bbb-	.
=203	=203	=203
*	*8va	*
4CC/	4.eee-\ 4.ggg 4.eeee-	.
4C\ 4G	.	.
.	8eee-\ 8ggg 8eeee-	.
4G\ 4c	4eee-\ 4ggg 4eeee-	.
=204	=204	=204
4BBB-/	4.fff\ 4.bbb- 4.ffff	.
4BB-\ 4A-	.	.
.	8fff\ 8bbb- 8ffff	.
4A-\ 4d	4fff\ 4bbb- 4ffff	.
=205	=205	=205
!	!LO:TX:b:i:t=con bravura	!
4EEE-/	4ggg\ 4eeee- 4gggg	.
*clefG2	*	*
4dd\ 4ddd	8r	.
.	8ggg\ 8eeee- 8gggg	.
4cc\ 4ccc	8r	.
.	8ggg\ 8eeee- 8gggg	.
=206	=206	=206
4b-\ 4bb-	8r	.
.	8eee-\ 8bbb- 8eeee-	.
4an\ 4aan	8r	.
.	8eee-\ 8aaan 8eeee-	.
4a-X\ 4aa-X	8r	.
!	!LO:TX:a:t=loco	!
.	8eee-\ 8aaa-X 8eeee-	.
*	*X8va	*
!!LO:LB:g=original
=207	=207	=207
*clefG2	*	*
4g\ 4gg	8r	.
.	8bb-\ 8ggg 8bbb-	.
4f\ 4ff	8r	.
.	8bb-\ 8fff 8bbb-	.
4e-\ 4ee-	8r	.
.	8bb-\ 8eee- 8bbb-	.
=208	=208	=208
4c/ 4cc	8r	.
!	!LO:TX:t=P:problem:korekty ołówkiem	!
.	8ee-\ 8ccc	.
4B-/ 4b-	8r	.
.	8ee-\ 8bb-	.
4G/ 4g	8r	.
.	8ee-\ 8gg	.
*clefF4	*	*
=209	=209	=209
4EEE-/ 4EE-	8r	.
.	8g\ 8ee- 8gg	.
4D\ 4d	8r	.
.	8g\ 8dd 8gg	.
4C\ 4c	8r	.
.	8g\ 8cc 8gg	.
=210	=210	=210
4BB-\ 4B-	8r	.
.	8e-\ 8b- 8ee-	.
4AAn\ 4An	8r	.
.	8e-\ 8an 8ee-	.
4AA-X\ 4A-X	8r	.
.	8e-\ 8a-X 8ee-	.
=211	=211	=211
4GG\ 4G	8r	.
.	8B-/ 8g 8b-	.
4FF\ 4F	8r	.
.	8B-/ 8f 8b-	.
4EE-/ 4E-	8r	.
.	8B-/ 8e- 8b-	.
=212	=212	=212
4CC/ 4C	8r	.
!	!LO:TX:t=P:problem:korekty ołówkiem	!
.	8G/ 8c 8e-	.
4BBB-/ 4BB-	8r	.
.	8G/ 8B- 8e-	.
4GGG/ 4GG	8r	.
.	8E-/ 8G 8e-	.
!!LO:LB:g=original
=213	=213	=213
!	!LO:TX:a:i:t=Presto possibile._	!
8EEE-\L 8EE-	8r<	.
8r	8E-</L 8e-<	.
8FFF\ 8FF	8r<	.
8r	8F</ 8f<	.
8GGG\J 8GG	8r<	.
8r	8G</J 8g<	.
=214	=214	=214
8BBB-\L 8BB-	8r	.
8r	8B-/L 8b-	.
8EE-\ 8E-	8r	.
8r	8e-/ 8ee-	.
8FF\J 8F	8r	.
8r	8f/J 8ff	.
=215	=215	=215
8GG\L 8G	8r	.
8r	8g\L 8gg	.
8BB-\ 8B-	8r	.
8r	8b-\ 8gg 8bb-	.
!LO:TX:b:i:t=Ofriensteidl._ Graben.	!	!
8E-\J 8e-	8r	.
8r	8ee-\J 8eee-	.
=216	=216	=216
8F\L 8f	8r	.
8r	8ff\L 8fff	.
8G\ 8g	8r	.
8r	8gg\ 8ggg	.
8B-\J 8b-	8r	.
8r	8bb-\J 8bbb-	.
*clefG2	*	*
=217	=217	=217
4e-/ 4ee-	4eee-\ 4eeee-	.
4r	4r	.
4r	4r	.
*clefF4	*	*
=218	=218	=218
4qqE-\ 4qqB- 4qqe-	4qqg\ 4qqee- 4qqgg	.
4E-\ 4B- 4e-	4g\ 4ee- 4gg	.
4r	4r	.
4r	4r	.
=219	=219	=219
4qqEEE-/ 4qqEE-	4qqE-/	.
4EEE-/ 4EE-	4E-/	.
4r	4r	.
!	!LO:TX:b:i:t=Cervieux tantcequi	!
!	!LO:TX:b:i:t=Fine.	!
!LO:TX:t=[segno]	!LO:TX:t=[segno]	!
4r	4r	.
==	==	==
*-	*-	*-
!!!system-decoration: {(s1,s2)}
!!!RDF**kern: < = below
!!!RDF**kern: > = above
!!!ENC: Marta Chmielewska
!!!END: 2021-05-21
!!!ENC: Mateusz Solarz
!!!END: 2021-04-23
